X:1
T:Rivaulx, LM
T:John Bacchus Dykes, 1866
T:Rivaulx, LM
T:Public Domain
C:John Bacchus Dykes, 1866
Z:Public Domain
%%score ( 1 2 ) ( 3 4 )
L:1/8
M:3/4
K:D
V:1 treble 
V:2 treble 
V:3 bass 
V:4 bass 
V:1
 [DA]2 [FA]2 [FA]2 | [GA]4 (FE) | [EB]4 [EB]2 | [FA]6 | [Dd]2 [Dd]2 [DB]2 | [DE]4 [DF]2 | %6
 (D2 z2) G2 x2 | [DF]4 [B,D]2 | (C2 D2) [EF]2 | [DF]4 [DF]2 | (E2 F2) [GA]2 | [FA]6 | %12
 [Dd]2 [Dc]2 [DB]2 | (A,2 B,2) [CG]2 | (D2 z2) E2 x2 | D6 |] %16
V:2
 x6 | x4 A2 | x6 | x6 | x6 | x6 | G4 C4 | x6 | F4 x2 | x6 | A4 x2 | x6 | x6 | A4 x2 | F4 C4 | D6 |] %16
V:3
 [D,F,]2 [D,A,]2 [D,D]2 | [C,E]4 (DC) | [G,B,]4 [G,C]2 | [D,D]6 | [F,A,]2 [F,A,]2 [G,B,]2 | %5
 [G,B,]4 [F,A,]2 | (B,2 A,2) [E,G,]2 x2 | [D,A,]4 [G,B,]2 | [F,B,]4 [F,,^A,]2 | [B,,B,]4 [B,D]2 | %10
 [A,D]4 [A,,A,C]2 | (D4 C2) | B,2 [A,C]2 [G,D]2 | [F,D]4 [E,G,]2 | (D,2 z2) G,2 x2 | [D,F,]6 |] %16
V:4
 x6 | x4 D,2 | x6 | x6 | x6 | x6 | E,4 x4 | x6 | x6 | x6 | x6 | D,6 | B,2 x4 | x6 | A,4 A,,4 | %15
 x6 |] %16

